static/assets/img/icons/theme/general/binocular.svg

<svg height="24" viewBox="0 0 24 24" width="24" xmlns="http://www.w3.org/2000/svg"><g fill="none" fill-rule="evenodd"><path d="m0 0h24v24h-24z" opacity="0"/><path d="m12.8434797 16h-1.6869594l-.1713044.6393167c-.6499505 2.4256483-3.14321593 3.8651357-5.56886418 3.2151852-2.42564824-.6499505-3.86513569-3.1432159-3.2151852-5.5688641l1.71970057-6.41800991c.64995049-2.42564825 3.14321589-3.8651357 5.56886413-3.21518521 1.05244148.28200084 1.91923588.91100994 2.51026878 1.73094427.5910329-.81993433 1.4578273-1.44894343 2.5102688-1.73094427 2.4256482-.64995049 4.9189136.78953696 5.5688641 3.21518521l1.7197006 6.41800991c.6499505 2.4256482-.789537 4.9189136-3.2151852 5.5688641-2.4256483.6499505-4.9189137-.7895369-5.5688642-3.2151852zm4.6128705 2.1051865c1.5067295 0 2.7281751-1.2673898 2.7281751-2.8307942 0-1.5634045-1.2214456-2.8307942-2.7281751-2.8307942s-2.7281751 1.2673897-2.7281751 2.8307942c0 1.5634044 1.2214456 2.8307942 2.7281751 2.8307942zm-10.91270043 0c1.50672951 0 2.72817511-1.2673898 2.72817511-2.8307942 0-1.5634045-1.2214456-2.8307942-2.72817511-2.8307942s-2.72817512 1.2673897-2.72817512 2.8307942c0 1.5634044 1.22144561 2.8307942 2.72817512 2.8307942z" fill="#000"/></g></svg>

<svg width="24px" height="24px" viewBox="0 0 24 24" version="1.1" xmlns="http://www.w3.org/2000/svg" xmlns:xlink="http://www.w3.org/1999/xlink">
    <title>Icon For Binocular</title>
    <g stroke="none" stroke-width="1" fill="none" fill-rule="evenodd">
        <rect opacity="0" x="0" y="0" width="24" height="24"></rect>
        <path d="M12.8434797,16 L11.1565203,16 L10.9852159,16.6393167 C10.3352654,19.064965 7.84199997,20.5044524 5.41635172,19.8545019 C2.99070348,19.2045514 1.55121603,16.711286 2.20116652,14.2856378 L3.92086709,7.86762789 C4.57081758,5.44197964 7.06408298,4.00249219 9.48973122,4.65244268 C10.5421727,4.93444352 11.4089671,5.56345262 12,6.38338695 C12.5910329,5.56345262 13.4578273,4.93444352 14.5102688,4.65244268 C16.935917,4.00249219 19.4291824,5.44197964 20.0791329,7.86762789 L21.7988335,14.2856378 C22.448784,16.711286 21.0092965,19.2045514 18.5836483,19.8545019 C16.158,20.5044524 13.6647346,19.064965 13.0147841,16.6393167 L12.8434797,16 Z M17.4563502,18.1051865 C18.9630797,18.1051865 20.1845253,16.8377967 20.1845253,15.2743923 C20.1845253,13.7109878 18.9630797,12.4435981 17.4563502,12.4435981 C15.9496207,12.4435981 14.7281751,13.7109878 14.7281751,15.2743923 C14.7281751,16.8377967 15.9496207,18.1051865 17.4563502,18.1051865 Z M6.54364977,18.1051865 C8.05037928,18.1051865 9.27182488,16.8377967 9.27182488,15.2743923 C9.27182488,13.7109878 8.05037928,12.4435981 6.54364977,12.4435981 C5.03692026,12.4435981 3.81547465,13.7109878 3.81547465,15.2743923 C3.81547465,16.8377967 5.03692026,18.1051865 6.54364977,18.1051865 Z" fill="#000000"></path>
    </g>
</svg>
